X: 55
T: No_45_"I_Possess_the_Salt_Water".krn
N: Derived from No_45_"I_Possess_the_Salt_Water".krn
%%abc-version 2.0
%%abcx-abcm2ps-target-version 5.9.1 (29 Sep 2008)
%%abc-creator hum2abc beta
%%abcx-conversion-date 2019/03/15 08:36:13
%%humdrum-veritas 4195854213
%%humdrum-veritas-data 589723103
%%linebreak <none>
%%barnumbers 0
L: 1/16
M: 3/4
K: Db clef=bass
[K:clef=bass][M:3/4]z8B,3C | 
C12 ||  
[M:2/4]EDCC C3C ||  
[M:3/4]C2CDC4B,4 | 
C4z4C3D ||  
[M:2/4]D8 | 
D2DE D z DE | 
D4B,4 ||  
[M:3/4]D4z2 z D D3D ||  
[M:2/4]DB,3z4 ||  
[M:3/4]D4D3D DB, z2 ||  
[M:2/4]CB,2B, CB, z D | 
B,4B,3B, | 
B,4z2 z B, | 
C4C3B, | 
D4z2 D2 | 
D3D DB, z2 ||  
[M:3/4]D4D3D DB,3 ||  
[M:2/4]CB, z B, CB, z A, | 
B,4B,3A, | 
B,4z2 z B, | 
C4C3B, | 
C8 |]  



% FRACTION = 0.499634BUT SHOULD BE 0
